X:344
T:Old Rustic Bridge, The 
C:Joe Buchanan's Scottish Tome - Page 011.2-012.2
I:011 2
R:March
Z:Carl Allison
L:1/8
M:2/4
K:D
A>d | f2 (fg/) f2 dc | B2 (Gd) A2 A | B2 (cd) d2 cd | e2 (e>f) e2 (A>d) |
| f2 (f>g) f2 dc | B2 (Gd) A3 A | B2 (eg) fecA | d2 (d>e) d2 d2 |
| c2 (c>d) e2 fe | e2 (Bc) d2 c>d | e2 (a>c) edcB | A2 B2 c2 (Ad/) |
| f2 (fg) f2 dc | B2 (Gd) A3 A | B2 (eg) fecA | d2 (de) d3 f |
| g2 (g>f) e2 Bc | (d (f3) f3) f | e2 (a>c) edcB | A2 B2 c2 (A>d) |
| f2 (f>g) f2 dc | B2 (Gd) A3 A | B2 (eg) fecA | d2 (d>e) d2 |]

